public/images/logos/grafbase-dark.svg

<svg width="20" height="20" viewBox="0 0 20 20" fill="none" xmlns="http://www.w3.org/2000/svg">
<g clip-path="url(#clip0_220_29)">
<path fill-rule="evenodd" clip-rule="evenodd" d="M10.745 0.459976C10.7942 0.557855 10.8235 0.664468 10.8315 0.773713C10.8394 0.882958 10.8256 0.99269 10.7911 1.09663C10.7565 1.20057 10.7018 1.29667 10.6301 1.37944C10.5583 1.4622 10.471 1.53001 10.373 1.57898L2.69701 5.41698L10 9.06798L17.232 5.45298L14.583 4.24898L10.345 6.17498C10.2454 6.22028 10.1378 6.24553 10.0285 6.24926C9.91912 6.253 9.81009 6.23516 9.70762 6.19677C9.60515 6.15837 9.51125 6.10017 9.43128 6.02548C9.3513 5.95079 9.28682 5.86108 9.24151 5.76148C9.19621 5.66187 9.17096 5.55431 9.16722 5.44495C9.16349 5.33559 9.18132 5.22656 9.21972 5.12409C9.25812 5.02162 9.31632 4.92771 9.39101 4.84774C9.4657 4.76776 9.55541 4.70328 9.65501 4.65798L14.239 2.57498C14.458 2.47498 14.709 2.47498 14.929 2.57498L19.512 4.65798C19.6554 4.72308 19.7773 4.82748 19.8637 4.95907C19.9502 5.09065 19.9976 5.24404 20.0004 5.40145C20.0032 5.55886 19.9614 5.71385 19.8797 5.84845C19.7981 5.98306 19.6799 6.09176 19.539 6.16198L10.373 10.745C10.2572 10.803 10.1295 10.8332 10 10.8332C9.87052 10.8332 9.7428 10.803 9.62701 10.745L0.461013 6.16198C0.322678 6.09278 0.20634 5.98644 0.125032 5.85485C0.0437241 5.72327 0.000657993 5.57165 0.000657993 5.41698C0.000657993 5.2623 0.0437241 5.11068 0.125032 4.9791C0.20634 4.84752 0.322678 4.74117 0.461013 4.67198L9.62701 0.0869758C9.7249 0.0380071 9.83149 0.00881081 9.94067 0.00105583C10.0498 -0.00669915 10.1595 0.00713924 10.2633 0.04178C10.3671 0.0764207 10.4631 0.131185 10.5458 0.202941C10.6284 0.274698 10.6961 0.36204 10.745 0.459976ZM0.0880134 9.62798C0.13698 9.53013 0.204745 9.44288 0.287437 9.37123C0.370129 9.29957 0.466127 9.24491 0.569949 9.21037C0.67377 9.17582 0.783381 9.16207 0.892518 9.1699C1.00166 9.17772 1.10818 9.20697 1.20601 9.25598L10 13.652L18.794 9.25498C18.9912 9.15943 19.2181 9.14543 19.4256 9.21602C19.633 9.28661 19.8043 9.4361 19.9023 9.63209C20.0003 9.82808 20.0171 10.0548 19.9491 10.2631C19.8811 10.4714 19.7338 10.6445 19.539 10.745L10.373 15.329C10.2572 15.387 10.1295 15.4172 10 15.4172C9.87052 15.4172 9.7428 15.387 9.62701 15.329L0.461013 10.745C0.363078 10.6961 0.275735 10.6284 0.203979 10.5457C0.132222 10.4631 0.0774583 10.3671 0.0428176 10.2633C0.00817684 10.1594 -0.00566155 10.0498 0.00209343 9.94063C0.0098484 9.83145 0.0390447 9.72487 0.0880134 9.62698V9.62798ZM0.0880134 14.212C0.136892 14.114 0.204593 14.0267 0.287246 13.9549C0.369899 13.8832 0.465883 13.8284 0.569712 13.7938C0.673542 13.7591 0.78318 13.7453 0.892361 13.7531C1.00154 13.7608 1.10812 13.79 1.20601 13.839L10 18.235L18.794 13.838C18.9912 13.7424 19.2181 13.7284 19.4256 13.799C19.633 13.8696 19.8043 14.0191 19.9023 14.2151C20.0003 14.4111 20.0171 14.6378 19.9491 14.8461C19.8811 15.0544 19.7338 15.2275 19.539 15.328L10.373 19.912C10.2572 19.97 10.1295 20.0002 10 20.0002C9.87052 20.0002 9.7428 19.97 9.62701 19.912L0.461013 15.329C0.363078 15.2801 0.275735 15.2124 0.203979 15.1297C0.132222 15.0471 0.0774583 14.9511 0.0428176 14.8473C0.00817684 14.7434 -0.00566155 14.6338 0.00209343 14.5246C0.0098484 14.4154 0.0390447 14.3099 0.0880134 14.212Z" fill="white"/>
</g>
<defs>
<clipPath id="clip0_220_29">
<rect width="20" height="20" fill="white"/>
</clipPath>
</defs>
</svg>

<svg xmlns="http://www.w3.org/2000/svg" width="20" height="20" fill="none"><g clip-path="url(#a)"><path fill="#fff" fill-rule="evenodd" d="M10.745.46a.834.834 0 0 1-.372 1.119L2.697 5.417 10 9.068l7.232-3.615-2.649-1.204-4.238 1.926a.833.833 0 0 1-.69-1.517l4.584-2.083c.219-.1.47-.1.69 0l4.583 2.083a.832.832 0 0 1 .027 1.504l-9.166 4.583a.83.83 0 0 1-.746 0L.461 6.162a.833.833 0 0 1 0-1.49L9.627.087a.833.833 0 0 1 1.118.373M.088 9.628a.833.833 0 0 1 1.118-.372L10 13.652l8.794-4.397a.833.833 0 0 1 .745 1.49l-9.166 4.584a.83.83 0 0 1-.746 0L.461 10.745a.833.833 0 0 1-.373-1.118zm0 4.584a.833.833 0 0 1 1.118-.373L10 18.235l8.794-4.397a.833.833 0 0 1 .745 1.49l-9.166 4.584a.83.83 0 0 1-.746 0L.461 15.329a.833.833 0 0 1-.373-1.117" clip-rule="evenodd"/></g><defs><clipPath id="a"><path fill="#fff" d="M0 0h20v20H0z"/></clipPath></defs></svg>
